svg/ionicons/bus.svg

<svg xmlns="http://www.w3.org/2000/svg" width="512" height="512" viewBox="0 0 512 512"><path d="M400 32H112a48 48 0 00-48 48v320a47.9 47.9 0 0016 35.74V454a26 26 0 0026 26h28a26 26 0 0026-26v-6h192v6a26 26 0 0026 26h28a26 26 0 0026-26v-18.26A47.9 47.9 0 00448 400V80a48 48 0 00-48-48M147.47 399.82a32 32 0 1128.35-28.35 32 32 0 01-28.35 28.35M236 288H112a16 16 0 01-16-16V144a16 16 0 0116-16h124a4 4 0 014 4v152a4 4 0 01-4 4m20-192H112.46c-8.6 0-16-6.6-16.44-15.19A16 16 0 01112 64h287.54c8.6 0 16 6.6 16.44 15.19A16 16 0 01400 96zm20 32h124a16 16 0 0116 16v128a16 16 0 01-16 16H276a4 4 0 01-4-4V132a4 4 0 014-4m60.18 243.47a32 32 0 1128.35 28.35 32 32 0 01-28.35-28.35"/></svg>

<svg xmlns="http://www.w3.org/2000/svg" width="512" height="512" viewBox="0 0 512 512"><path d="M400,32H112A48,48,0,0,0,64,80V400a47.91,47.91,0,0,0,16,35.74V454a26,26,0,0,0,26,26h28a26,26,0,0,0,26-26v-6H352v6a26,26,0,0,0,26,26h28a26,26,0,0,0,26-26V435.74A47.91,47.91,0,0,0,448,400V80A48,48,0,0,0,400,32ZM147.47,399.82a32,32,0,1,1,28.35-28.35A32,32,0,0,1,147.47,399.82ZM236,288H112a16,16,0,0,1-16-16V144a16,16,0,0,1,16-16H236a4,4,0,0,1,4,4V284A4,4,0,0,1,236,288ZM256,96H112.46c-8.6,0-16-6.6-16.44-15.19A16,16,0,0,1,112,64H399.54c8.6,0,16,6.6,16.44,15.19A16,16,0,0,1,400,96H256Zm20,32H400a16,16,0,0,1,16,16V272a16,16,0,0,1-16,16H276a4,4,0,0,1-4-4V132A4,4,0,0,1,276,128Zm60.18,243.47a32,32,0,1,1,28.35,28.35A32,32,0,0,1,336.18,371.47Z"/></svg>
